X:1
T:The humors of Westport
C:anon.
L:1/8
M:4/4
I:linebreak $
K:C
V:1 treble 
V:1
 .abc ||[K:F][M:2/2] (Tf2{g} fe) fcAc | (f2{g} fe) fage | fage fcAc | (TBAG)A (Bc)de | %5
 (f2{g} fe) fcAc |$ (f2{g} fe) fagb | afge fcAc | (TBA)GA (Bd)dc || x8 | AFcF dFcF | AFcF BdcB |$ %12
 AFcF dFcF | (TBA)G(A Bd)cB | AFcF dFcF | AFcF BdcB | Acfa gefc |$ (TBA)GA (Bc)de |] %18
